Numix-GalliumOS/32/devices/audio-headset.svg

<?xml version="1.0" encoding="UTF-8" standalone="no"?>
<svg
   xmlns:dc="http://purl.org/dc/elements/1.1/"
   xmlns:cc="http://creativecommons.org/ns#"
   xmlns:rdf="http://www.w3.org/1999/02/22-rdf-syntax-ns#"
   xmlns:svg="http://www.w3.org/2000/svg"
   xmlns="http://www.w3.org/2000/svg"
   xmlns:sodipodi="http://sodipodi.sourceforge.net/DTD/sodipodi-0.dtd"
   xmlns:inkscape="http://www.inkscape.org/namespaces/inkscape"
   viewBox="0 0 32 32"
   id="svg2"
   version="1.1"
   inkscape:version="0.91 r"
   sodipodi:docname="audio-headset.svg"
   width="32"
   height="32">
  <metadata
     id="metadata12">
    <rdf:RDF>
      <cc:Work
         rdf:about="">
        <dc:format>image/svg+xml</dc:format>
        <dc:type
           rdf:resource="http://purl.org/dc/dcmitype/StillImage" />
        <dc:title />
      </cc:Work>
    </rdf:RDF>
  </metadata>
  <defs
     id="defs10" />
  <sodipodi:namedview
     pagecolor="#ffffff"
     bordercolor="#666666"
     borderopacity="1"
     objecttolerance="10"
     gridtolerance="10"
     guidetolerance="10"
     inkscape:pageopacity="0"
     inkscape:pageshadow="2"
     inkscape:window-width="1920"
     inkscape:window-height="1056"
     id="namedview8"
     showgrid="true"
     inkscape:zoom="7.9999995"
     inkscape:cx="16.180654"
     inkscape:cy="42.564712"
     inkscape:window-x="0"
     inkscape:window-y="24"
     inkscape:window-maximized="1"
     inkscape:current-layer="svg2">
    <inkscape:grid
       type="xygrid"
       id="grid4140" />
  </sodipodi:namedview>
  <path
     style="fill:#faae40;fill-opacity:1;fill-rule:evenodd;stroke:none;stroke-width:1px;stroke-linecap:butt;stroke-linejoin:miter;stroke-opacity:1"
     d="m 15.817446,3.413942 c 0,-1e-6 -2.356972,0.173909 -3.928288,0.764174 C 10.317843,4.768382 9.305154,5.45481 7.175214,7.026126 5.045273,8.597441 6.058106,8.899735 6.058106,8.899735 6.627034,8.964815 7.364749,8.940975 7.870337,8.595906 8.514842,8.156026 9.921388,7.024911 11.103501,6.541227 12.590622,5.932744 14.210598,5.53307 15.817446,5.53307 c 1.606848,0 3.226824,0.399674 4.713945,1.008157 1.182113,0.483684 2.588659,1.614799 3.233164,2.054679 0.505588,0.345068 1.243303,0.368916 1.812231,0.303829 0,0 1.012832,-0.302294 -1.117108,-1.873609 C 22.329738,5.45481 21.317049,4.768382 19.745734,4.178116 18.174418,3.587851 15.817446,3.413941 15.817446,3.413942 Z"
     id="path4210"
     inkscape:connector-curvature="0"
     sodipodi:nodetypes="csscssasscssc" />
  <path
     style="opacity:1;fill:none;fill-opacity:1;fill-rule:nonzero;stroke:#515151;stroke-width:1.20000005;stroke-linecap:butt;stroke-linejoin:miter;stroke-miterlimit:4;stroke-dasharray:none;stroke-dashoffset:0;stroke-opacity:1"
     id="path4142"
     transform="scale(-1,-1)"
     sodipodi:type="arc"
     sodipodi:cx="-16"
     sodipodi:cy="-15.791397"
     sodipodi:rx="12.4"
     sodipodi:ry="12.4"
     sodipodi:start="0"
     sodipodi:end="3.1415927"
     sodipodi:open="true"
     d="m -3.6000004,-15.791397 a 12.4,12.4 0 0 1 -6.2,10.7387147 12.4,12.4 0 0 1 -12.3999996,-3e-7 12.4,12.4 0 0 1 -6.2,-10.7387154" />
  <path
     style="fill:#faae40;fill-opacity:1;fill-rule:evenodd;stroke:none;stroke-width:1px;stroke-linecap:butt;stroke-linejoin:miter;stroke-opacity:1"
     d="m 3,15.791398 0.2,2.4 1.2,0 -0.2,-2.4 z"
     id="path4166"
     inkscape:connector-curvature="0"
     sodipodi:nodetypes="ccccc" />
  <rect
     style="opacity:1;fill:#515151;fill-opacity:1;fill-rule:nonzero;stroke:none;stroke-width:1;stroke-linecap:butt;stroke-linejoin:miter;stroke-miterlimit:4;stroke-dasharray:none;stroke-dashoffset:0;stroke-opacity:1"
     id="rect4157"
     width="5.5999999"
     height="12.8"
     x="3.2023668"
     y="16.800745"
     ry="1.6"
     rx="1.6"
     transform="matrix(0.9961947,-0.08715574,0.08715574,0.9961947,0,0)" />
  <path
     sodipodi:nodetypes="ccccccc"
     style="fill:#515151;fill-opacity:1;fill-rule:evenodd;stroke:none;stroke-width:1px;stroke-linecap:butt;stroke-linejoin:miter;stroke-opacity:1"
     d="M 3.2,18.191067 4.10642,28.551492 4.903375,28.481762 4.833645,27.684806 5.6306,27.615086 4.793905,18.051616 Z"
     id="path4155"
     inkscape:connector-curvature="0" />
  <rect
     style="opacity:1;fill:#faae40;fill-opacity:1;fill-rule:nonzero;stroke:none;stroke-width:1;stroke-linecap:butt;stroke-linejoin:miter;stroke-miterlimit:4;stroke-dasharray:none;stroke-dashoffset:0;stroke-opacity:1"
     id="rect4159"
     width="1.6"
     height="12.8"
     x="3.2023668"
     y="16.800745"
     transform="matrix(0.9961947,-0.08715574,0.08715574,0.9961947,0,0)" />
  <path
     sodipodi:nodetypes="ccccc"
     inkscape:connector-curvature="0"
     id="path4181"
     d="m 29,15.791398 -0.2,2.4 -1.2,0 0.2,-2.4 z"
     style="fill:#faae40;fill-opacity:1;fill-rule:evenodd;stroke:none;stroke-width:1px;stroke-linecap:butt;stroke-linejoin:miter;stroke-opacity:1" />
  <rect
     rx="1.5999327"
     ry="1.5999995"
     y="14.01165"
     x="-28.675871"
     height="12.799996"
     width="5.5997648"
     id="rect4185"
     style="opacity:1;fill:#515151;fill-opacity:1;fill-rule:nonzero;stroke:none;stroke-width:1;stroke-linecap:butt;stroke-linejoin:miter;stroke-miterlimit:4;stroke-dasharray:none;stroke-dashoffset:0;stroke-opacity:1"
     transform="matrix(-0.99619438,-0.08715941,-0.08715207,0.99619502,0,0)" />
  <path
     inkscape:connector-curvature="0"
     id="path4187"
     d="m 28.799999,18.191067 -0.906381,10.360425 -0.796922,-0.06973 0.06972,-0.796956 -0.796922,-0.06972 0.83666,-9.56347 z"
     style="fill:#515151;fill-opacity:1;fill-rule:evenodd;stroke:none;stroke-width:1px;stroke-linecap:butt;stroke-linejoin:miter;stroke-opacity:1"
     sodipodi:nodetypes="ccccccc" />
  <rect
     y="14.01165"
     x="-28.675871"
     height="12.799996"
     width="1.5999327"
     id="rect4189"
     style="opacity:1;fill:#faae40;fill-opacity:1;fill-rule:nonzero;stroke:none;stroke-width:1;stroke-linecap:butt;stroke-linejoin:miter;stroke-miterlimit:4;stroke-dasharray:none;stroke-dashoffset:0;stroke-opacity:1"
     transform="matrix(-0.99619438,-0.08715941,-0.08715207,0.99619502,0,0)" />
  <path
     style="color:#000000;font-style:normal;font-variant:normal;font-weight:normal;font-stretch:normal;font-size:medium;line-height:normal;font-family:sans-serif;text-indent:0;text-align:start;text-decoration:none;text-decoration-line:none;text-decoration-style:solid;text-decoration-color:#000000;letter-spacing:normal;word-spacing:normal;text-transform:none;direction:ltr;block-progression:tb;writing-mode:lr-tb;baseline-shift:baseline;text-anchor:start;white-space:normal;clip-rule:nonzero;display:inline;overflow:visible;visibility:visible;opacity:1;isolation:auto;mix-blend-mode:normal;color-interpolation:sRGB;color-interpolation-filters:linearRGB;solid-color:#000000;solid-opacity:1;fill:#515151;fill-opacity:1;fill-rule:nonzero;stroke:none;stroke-width:1.5;stroke-linecap:round;stroke-linejoin:miter;stroke-miterlimit:4;stroke-dasharray:none;stroke-dashoffset:0;stroke-opacity:1;color-rendering:auto;image-rendering:auto;shape-rendering:auto;text-rendering:auto;enable-background:accumulate"
     d="m 16,0.191399 c -0.33811,-0.0044 -0.61309,0.271278 -0.607813,0.609375 0.0052,0.330755 0.277046,0.594939 0.607813,0.590625 7.960006,0 14.4,6.439975 14.4,14.399999 0,2.4 -0.359678,6.727903 -1.1,6.88125 -0.522248,0.108176 -1.3,0.31875 -1.3,0.31875 l 0,1.2 c 0,0 2.077512,-0.258492 2.564185,-0.973652 C 30.878625,22.755681 31.602702,20.591398 31.6,15.791398 31.6,7.182847 24.608536,0.191399 16,0.191399 Z"
     id="path4142-2"
     inkscape:connector-curvature="0"
     sodipodi:nodetypes="ccccsccscc" />
  <rect
     style="opacity:1;fill:#515151;fill-opacity:1;fill-rule:nonzero;stroke:none;stroke-width:1.5;stroke-linecap:round;stroke-linejoin:miter;stroke-miterlimit:4;stroke-dasharray:none;stroke-dashoffset:0;stroke-opacity:1"
     id="rect4245"
     width="2.4000001"
     height="1.6485281"
     x="16"
     y="0.54287148"
     rx="0.56" />
</svg>

<svg xmlns="http://www.w3.org/2000/svg" viewBox="0 0 32 32">
 <path d="m 15.817 3.414 c 0 0 -2.357 0.174 -3.928 0.764 c -1.571 0.59 -2.584 1.277 -4.714 2.848 -2.13 1.571 -1.117 1.874 -1.117 1.874 0.569 0.065 1.307 0.041 1.812 -0.304 0.645 -0.44 2.051 -1.571 3.233 -2.055 1.487 -0.608 3.107 -1.01 4.714 -1.01 c 1.607 0 3.227 0.4 4.714 1.01 1.182 0.484 2.589 1.615 3.233 2.055 0.506 0.345 1.243 0.369 1.812 0.304 0 0 1.013 -0.302 -1.117 -1.874 c -2.13 -1.571 -3.143 -2.258 -4.714 -2.848 -1.571 -0.59 -3.928 -0.764 -3.928 -0.764" style="fill:#faae40;fill-opacity:1;stroke:none;fill-rule:evenodd"/>
 <path transform="scale(-1,-1)" d="m -3.6 -15.791 a 12.4 12.4 0 0 1 -6.2 10.739 12.4 12.4 0 0 1 -12.4 0 12.4 12.4 0 0 1 -6.2 -10.739" style="stroke-dasharray:none;stroke-opacity:1;fill:none;opacity:1;stroke-miterlimit:4;fill-opacity:1;stroke:#515151;fill-rule:nonzero;stroke-linecap:butt;stroke-linejoin:miter;stroke-width:1.2;stroke-dashoffset:0"/>
 <path d="m 3 15.791 0.2 2.4 1.2 0 -0.2 -2.4 z" style="fill:#faae40;fill-opacity:1;stroke:none;fill-rule:evenodd"/>
 <rect width="5.6" height="12.8" x="3.202" y="16.801" rx="1.6" transform="matrix(0.9961947,-0.08715574,0.08715574,0.9961947,0,0)" style="fill:#515151;opacity:1;fill-opacity:1;stroke:none;fill-rule:nonzero"/>
 <path d="m 3.2 18.19 0.906 10.36 0.797 -0.07 -0.07 -0.797 0.797 -0.07 -0.837 -9.563" style="fill:#515151;fill-opacity:1;stroke:none;fill-rule:evenodd"/>
 <rect width="1.6" height="12.8" x="3.202" y="16.801" transform="matrix(0.9961947,-0.08715574,0.08715574,0.9961947,0,0)" style="fill:#faae40;opacity:1;fill-opacity:1;stroke:none;fill-rule:nonzero"/>
 <path d="m 29 15.791 -0.2 2.4 -1.2 0 0.2 -2.4 z" style="fill:#faae40;fill-opacity:1;stroke:none;fill-rule:evenodd"/>
 <rect rx="1.6" y="14.01" x="-28.676" height="12.8" width="5.6" transform="matrix(-0.99619438,-0.08715941,-0.08715207,0.99619502,0,0)" style="fill:#515151;opacity:1;fill-opacity:1;stroke:none;fill-rule:nonzero"/>
 <path d="m 28.8 18.19 -0.906 10.36 -0.797 -0.07 0.07 -0.797 -0.797 -0.07 0.837 -9.563 z" style="fill:#515151;fill-opacity:1;stroke:none;fill-rule:evenodd"/>
 <rect y="14.01" x="-28.676" height="12.8" width="1.6" transform="matrix(-0.99619438,-0.08715941,-0.08715207,0.99619502,0,0)" style="fill:#faae40;opacity:1;fill-opacity:1;stroke:none;fill-rule:nonzero"/>
 <path d="m 16 0.191 c -0.338 -0.004 -0.613 0.271 -0.608 0.609 0.005 0.331 0.277 0.595 0.608 0.591 7.96 0 14.4 6.44 14.4 14.4 0 2.4 -0.36 6.728 -1.1 6.881 -0.522 0.108 -1.3 0.319 -1.3 0.319 l 0 1.2 c 0 0 2.078 -0.258 2.564 -0.974 c 0.314 -0.462 1.039 -2.626 1.036 -7.426 0 -8.609 -6.991 -15.6 -15.6 -15.6" mix-blend-mode="normal" isolation="auto" white-space="normal" solid-opacity="1" solid-color="#000000" style="visibility:visible;shape-rendering:auto;color-interpolation-filters:linearRGB;fill:#515151;opacity:1;image-rendering:auto;fill-opacity:1;stroke:none;display:inline;color:#000;fill-rule:nonzero;color-rendering:auto;color-interpolation:sRGB"/>
 <rect width="2.4" height="1.649" x="16" y="0.543" rx="0.56" style="fill:#515151;opacity:1;fill-opacity:1;stroke:none;fill-rule:nonzero"/>
</svg>
